X:1
T:32
T:32
T:Études enfantines op. 37
T:Henry Lemoine
C:Henry Lemoine
%%score { 1 | 2 }
L:1/8
Q:1/2=110
M:2/2
K:D
V:1 treble nm="Piano" snm="Pno."
V:2 bass 
V:1
!mf!"^Allegro moderato\n" .!^!!5!d'(!1!a!2!^g!3!a !4!b!3!a!2!f!1!d | %1
 .!^!!5!d')(!1!a!2!^g!3!a !4!b!3!a!2!f!1!d | .!^!!5!e')(!1!a!2!^g!3!a !4!b!3!a!2!=g!1!e | %3
 .!^!!5!e')(!1!a!2!^g!3!a !4!b!3!a!2!=g!1!e | .!^!!5!f')(!1!a!2!^g!3!a !4!b!3!a!2!f!1!d | %5
 .!^!!5!d')(!1!a!2!^g!3!a !4!b!3!a!2!f!1!d | .!2!c) z (!5!e'd' c'd'b!3!c' | %7
 !1!a!5!b!3!=g!4!a !2!fgef | .!^!d)(!3!a!2!^g!3!a !4!bafd | %9
 .!^!!5!d')(!1!a!2!^g!3!a !4!b!3!a!2!f!1!d | .!^!!5!e')(!1!b!2!^a!3!b !4!c'!3!b!2!=g!1!e | %11
 .!^!!5!e')(!1!b!2!^a!3!b !4!c'!3!b!2!=g!1!e | .!^!!5!d')"_cresc."(!1!a!2!^g!3!a !4!b!3!a!2!f!1!d | %13
 .!^!!5!c')(!1!a!2!^g!3!a !4!b!3!a!2!=g!1!e | .!^!!5!d')!1!a!2!^g!3!a !4!b!3!a!2!f!1!d | %15
 z8!fine! :|!f! !1!!3!!5![Ace]8 | [Ace]8 | !2!!4!!5![Bde]8 | [Bde]8 | !1!!3!!5![Ace]8 | [Ace]8 | %22
 !2!!4!!5![Bde]8- | [Bde]8 |!f! !1!!3!!5![Ace]8 | [Ace]8 | !2!!4!!5![Bde]8 | [Bde]8 | [Ace]8 | %29
 [Bde]8 | [Ace]8- | [Ace] z"_poco rallentando" z2 !^!!3!a4!D.C.! |] %32
V:2
 !4!!2!!1![D,F,A,]8 | [D,F,A,]8 | !5!!2!!1![C,G,A,]8 | [C,G,A,]8 | [D,F,A,]8 | !5!!3!!1![F,A,D]8 | %6
 !5!!1![A,E]8- | [A,E]4 z4 | [D,F,A,]8 | !4!!2!!1![F,A,D]8 | !5!!3!!1![G,B,E]8 | [G,B,E]8 | %12
[K:treble] !5!!2!!1![A,DF]8 | !5!!2!!1![A,EG]8 | !4!!2![DF]8 |[K:bass]!f! !5!!3!!1![D,F,A,]8 :| %16
 .!^!!5!A,,(!1!E,!2!F,!3!E, !4!^D,!3!E,!2!^G,!1!A, | %17
 .!^!!5!A,,)(!1!E,!2!F,!3!E, !4!^D,!3!E,!2!^G,!1!A, | %18
 .!^!!5!^G,,)(!1!E,!2!F,!3!E, !4!^D,!3!E,!2!^G,!1!B, | %19
 .!^!!5!^G,,)(!1!E,!2!F,!3!E, !4!^D,!3!E,!2!^G,!1!B, | %20
 .!^!!5!A,,)(!1!E,!2!F,!3!E, !4!^D,!3!E,!2!^G,!1!A, | %21
 .!^!!5!A,,)(!1!E,!2!F,!3!E, !4!^D,!3!E,!2!^G,!1!A, | %22
 .E,,) z (!^!!1!B,!2!A, !3!^G,!1!A,!3!F,!2!G, | !4!E,!3!F,!5!=D,!1!E, !3!C,!2!D,!4!B,,!3!C, | %24
 .!^!!5!A,,)(!1!E,!2!F,!3!E, !4!^D,!3!E,!2!^G,!1!A, | %25
 .!^!!5!A,,)(!1!E,!2!F,!3!E, !4!^D,!3!E,!2!^G,!1!A, | %26
 .!^!!5!^G,,)(!1!E,!2!F,!3!E, !4!^D,!3!E,!2!^G,!1!B, | %27
 .!^!!5!^G,,)(!1!E,!2!F,!3!E, !4!^D,!3!E,!2!^G,!1!B, | %28
 .!^!!5!A,,)(!1!E,!2!F,!3!E, !4!^D,!3!E,!2!^G,!1!A, | %29
 .!^!!5!E,,)(!1!E,!2!F,!3!E, !4!^D,!3!E,!2!^G,!1!B, | .!^!!5!A,,)(!2!^G,!1!A,!2!G, A,G,A,!3!G, | %31
!>(! !2!A,!1!B,G,!2!A, !4!F,!1!G,!3!E,!>)!!2!F,) |] %32

